X:1
T:Title
%%score { ( 1 3 ) | ( 2 4 ) }
L:1/8
Q:1/4=90
M:6/8
K:Bb
V:1 treble nm="Grand Piano"
V:3 treble 
V:2 bass 
V:4 bass 
V:1
 [DF]>[DG][DA] [Dc]2 [FB] | [FA]3 [EG]3 | [Ge]>[Gd][CGc] [_DGB]2 [DG] | [FA]2 [=EB] [_Ec]3 | %4
w: Haldor~Lillenas * * * *||||
 [DF]>[DG][DA] [Dc]2 [FB] | [FA]3 G3 | z3 .d3 | [DB]6 | [Fd]>[Fd][Fd] [Ge]2 [Fd] | d3 c3 | %10
w: ||||||
 c>=Bc d2 c | B6 | B>BB A2 G | [DF]3 [DB]3 | [FB]>[Fc][Fd] [=Ec]2 [EB] | c6 | %16
w: ||||||
 [Fd]>[Fd][Fd] [Ge]2 [Fd] | [Fd]3 c3 | c>=Bc d2 c | B6 | [B,_AB]>[B,AB][B,AB] [Ac]2 [Ad] | %21
w: |||||
 [Gf]3 [Ge]3 | d>ed z G,c | B6 |] %24
w: |||
V:2
 [B,,B,]>[B,,B,][B,,B,] [B,,F,]2 [D,B,] | [E,B,]3 [E,B,]3 | [C,C]>[D,=B,]E, =E,2 E, | F,2 G, A,3 | %4
 B,>[B,,B,][B,,B,] [B,,F,]2 [D,B,] | [E,B,]3 [E,B,E]3 | %6
 [F,B,D][^F,B,_D][=F,B,=D] .[F,B,F]2 [F,A,E] | [B,,B,]6 | [B,,B,]>[B,,B,][B,,B,] [B,,B,]2 [B,,B,] | %9
 [F,B,F]3 [F,A,F]3 | [F,A,F]>[F,_A,F][F,=A,F] [F,B,F]2 [F,A,E] | z2 G, .F,3 | %12
 [E,G,E]>[E,G,E][E,G,E] [E,A,E]2 [E,B,E] | [B,,B,]3 [B,,B,]3 | %14
 [D,B,]>[C,A,][B,,B,] [C,B,]2 [C,B,] | [F,A,F]2 [G,B,] .[F,A,]3 | %16
 [B,,B,]>[B,,B,][B,,B,] [B,,B,]2 [B,,B,] | [B,,B,]3 [F,A,F]3 | %18
 [F,A,F]>[F,_A,F][F,=A,F] [F,B,F]2 [F,A,E] | z2 G, .F,3 | D,>D,D, [B,,B,]2 [B,,B,] | %21
 [E,B,]3 [E,B,]3 | [F,B,F]>[F,A,F][F,B,F] .[C,B,]2 [F,A,E] | z2 G, .F,3 |] %24
V:3
 x6 | x6 | x6 | C6 | x6 | x6 | F=EF z ^F,c | x6 | x6 | x6 | x6 | [B,D]2 E .D3 | x6 | x6 | x6 | %15
 z2 =E ._E3 | x6 | x6 | x6 | [B,D]2 E .D3 | x6 | x6 | z3 .[=Ed]3 | [B,D]2 E .D3 |] %24
V:4
 x6 | x6 | x6 | x6 | x6 | x6 | x6 | x6 | x6 | x6 | x6 | B,,6 | x6 | x6 | x6 | x6 | x6 | x6 | x6 | %19
 B,,6 | x6 | x6 | x6 | B,,6 |] %24

